X: 4320
M: 6/8
L: 1/8
K: G
e3- edB | G3- G2G | F3- FGF | B3- B2B |\
g3- gB^c | d3- d2d |\
d3- dBG | A3 G2e | e3- e^cA | B3 A2f |\
f3- f^dB | c3 B2g | g3- ge^c | d6- |\
d2d dcB | f3 e3 | z2A d3- | "_rit."ded  Bc z/F/ |\


